X:1
T:There Will I Follow Thee
T:Bentley DeForest Ackley, circa 1914
T:There Will I Follow Thee
T:Public Domain
T:Public Domain
C:Bentley DeForest Ackley, circa 1914
Z:Public Domain
%%score ( 1 2 ) ( 3 4 )
L:1/8
M:6/4
K:Bb
V:1 treble 
V:2 treble 
V:3 bass 
V:4 bass 
V:1
 F2 =E2 F2 G2 F2 _E2 | D6 D6 | E2 E2 E2 E2 F2 G2 | F6- F6 | F2 =E2 F2 G2 F2 _E2 | D6 D6 | %6
w: 1.~Whi- ther- so- ev- er Thou|go- est|Let me Thy foot- steps at-|tend; *|Je- sus, my won- der- ful|Sav- ior,|
w: 2.~O- ver the snow co- vered|mount- ain,|Out on the wild de- sert|track, *|Seek- ing to res- cue the|lost ones,|
w: 3.~Tell- ing of hope to the|friend- less,|Cheer- ing the homes where they|dwell; *|Go- ing with light and sal-|va- tion|
w: 4.~Giv- ing re- lief to the|strang- er,|Plod- ding his jour- ney a-|lone; *|Shar- ing the tri- als of|o- thers,|
 E2 E2 E2 E2 F2 E2 | D6- D6 ||"^Refrain" [Ge]2 [Gd]2 [Ge]2 [EG]6 | [Fd]2 [=E^c]2 [Fd]2 [DF]6 | %10
w: Lov- ing Re- deem- er and|friend. *|||
w: Ten- der- ly call- ing them|back. *|||
w: In- to the dark pri- son|cell. *|||
w: Pa- tient- ly bear- ing my|own. *|||
 [=Ec]2 [EG]2 [EA]2 [EB]2 [Ed]2 [Ec]2 | [=EB]2 [EA]2 [EG]2 [_Ec]6 | %12
w: ||
w: ||
w: ||
w: ||
 [Fd]2 [=E^c]2 [Fd]2 [G=e]2 [Fd]2 [_E=c]2 | [DB]6 [DF]6 | [EA]2 [EG]2 [EF]2 [Fd]4 [Ec]2 | %15
w: |||
w: |||
w: |||
w: |||
 (D4 E2) D6 |] %16
w: |
w: |
w: |
w: |
V:2
 x12 | x12 | x12 | x12 | x12 | x12 | x12 | x12 || x12 | x12 | x12 | x12 | x12 | x12 | x12 | %15
 d6- d6 |] %16
V:3
 D2 ^C2 D2 E2 D2 [F,,=C]2 | B,6 F,6 | A,2 G,2 F,2 C2 D2 E2 | B,,6- B,,6 | %4
w: ~ ~ ~ ~ ~ ~|~ ~|~ ~ ~ ~ ~ ~|~ *|
 D2 ^C2 D2 E2 D2 [F,,=C]2 | B,,6- B,,6 | A,2 G,2 F,2 C2 D2 C2 | B,,6- B,,6 || %8
w: ~ ~ ~ ~ ~ ~|would *|there would I be, Thou who|bored *|
 [E,B,]2 [E,B,]2 [E,B,]2 [E,B,]6 | [B,,B,]2 [B,,B,]2 [B,,B,]2 [B,,B,]6 | %10
w: sor- rowed for me;|Whi- ther- so- ev-|
 [C,B,]2 [C,B,]2 [C,A,]2 [C,G,]2 [C,B,]2 [C,A,]2 | [C,G,]2 [C,C]2 [C,B,]2 [F,A,]6 | %12
w: er Thou go- est, There will|I fol- low Thee.|
 [B,,B,]2 [B,,B,]2 [B,,B,]2 [F,A,]2 [F,A,]2 F,2 | [B,,F,]6 [B,,B,]6 | %14
w: ||
 [F,C]2 [F,B,]2 [F,A,]2 [F,B,]4 F,2 | (F,4 G,2) F,6 |] %16
w: ||
V:4
 B,,6 F,4 x2 | B,,6- B,,6 | F,,6 F,6 | D6- D6 | B,,6 F,4 x2 | B,6 F,6 | F,,6 F,6 | B,6- B,6 || %8
w: ~ ~|~ *|~ ~|~ *|~ There|I be,|hast la-|and *|
 x12 | x12 | x12 | x12 | x12 | x12 | x10 F,2 | B,,6- B,,6 |] %16
w: ||||||||

